app/assets/images/payment_icons/lydia.svg

<svg xmlns="http://www.w3.org/2000/svg" role="img" viewBox="0 0 38 24" width="38" height="24" aria-labelledby="pi-lydia"><title id="pi-lydia">Lydia</title><path fill="#000" d="M35 0H3C1.3 0 0 1.3 0 3v18c0 1.7 1.4 3 3 3h32c1.7 0 3-1.3 3-3V3c0-1.7-1.4-3-3-3z" opacity=".07"/><path fill="#fff" d="M35 1c1.1 0 2 .9 2 2v18c0 1.1-.9 2-2 2H3c-1.1 0-2-.9-2-2V3c0-1.1.9-2 2-2h32"/><linearGradient id="pi-lydia-a" gradientUnits="userSpaceOnUse" x1="19" y1="4.4" x2="19" y2="19.6"><stop offset="0" stop-color="#0180ff"/><stop offset="1" stop-color="#0069de"/></linearGradient><circle cx="19" cy="12" r="7.6" fill="url(#pi-lydia-a)"/><path d="M19 9.6c-.1.2-.2.5-.3.7-.8 1.8-1.5 3.7-2.3 5.5-.1.2-.2.3-.4.3h-.7c-.2 0-.4-.2-.3-.4 1.1-2.5 2.2-4.9 3.2-7.4.1-.2.3-.3.5-.3h.4c.3 0 .4.1.5.3l.9 2.1c.8 1.7 1.5 3.5 2.3 5.2.1.2 0 .4-.2.4h-.8c-.2 0-.3-.1-.4-.3-.8-2-1.7-4-2.5-6 .2 0 .1 0 .1-.1z" fill="#fff"/></svg>

<svg xmlns="http://www.w3.org/2000/svg" role="img" viewBox="0 0 38 24" width="38" height="24" aria-labelledby="pi-lydia"><title id="pi-lydia">Lydia</title><path fill="#000" d="M35,0 L3,0 C1.3,0 0,1.3 0,3 L0,21 C0,22.7 1.4,24 3,24 L35,24 C36.7,24 38,22.7 38,21 L38,3 C38,1.3 36.6,0 35,0 Z" opacity=".07" /><path fill="#fff" d="M35,1 C36.1,1 37,1.9 37,3 L37,21 C37,22.1 36.1,23 35,23 L3,23 C1.9,23 1,22.1 1,21 L1,3 C1,1.9 1.9,1 3,1 L35,1"/><linearGradient id="pi-lydia-a" gradientUnits="userSpaceOnUse" x1="19" y1="4.4" x2="19" y2="19.6"><stop offset="0" stop-color="#0180ff"/><stop offset="1" stop-color="#0069de"/></linearGradient><circle cx="19" cy="12" r="7.6" fill="url(#pi-lydia-a)"/><path d="M19 9.6c-.1.2-.2.5-.3.7-.8 1.8-1.5 3.7-2.3 5.5-.1.2-.2.3-.4.3h-.7c-.2 0-.4-.2-.3-.4 1.1-2.5 2.2-4.9 3.2-7.4.1-.2.3-.3.5-.3h.4c.3 0 .4.1.5.3l.9 2.1c.8 1.7 1.5 3.5 2.3 5.2.1.2 0 .4-.2.4H21.8c-.2 0-.3-.1-.4-.3-.8-2-1.7-4-2.5-6 .2 0 .1 0 .1-.1z" fill="#fff"/></svg>
